X: 198
T: Banks of Allen, the
M: 6/8
L: 1/8
Q:1/4=210
K:D % 2 sharps
% (c) SSF July 2006
D/2E/2|
"D"F=GF FED|"D"FAA A2d|"G"Bdd "D"Add|"G"Bdd "A"ADE|\
"D"FGF FED|"D"FAA A2d|"G"BdB "D"AFD|"A"FEE E2:||\
d/2e/2|
"D"fgf fed|"D"faa a2f|"D"fgf fed|"G"gbb b2a|\
"D"fga "A"efg|"D"def fed|"G"BdB "D"AFD|"A"FEE E2:||



%  <A name="D1X199"></A>
